public/images/db.svg

<svg width="191" height="82" viewBox="0 0 191 82" fill="none" xmlns="http://www.w3.org/2000/svg">
<path d="M105.67 36.06H172.57C177.255 36.06 181.748 34.1997 185.061 30.8881C188.375 27.5765 190.237 23.0846 190.24 18.4C190.24 13.7136 188.378 9.21919 185.065 5.90542C181.751 2.59166 177.256 0.73 172.57 0.73H105.67C100.984 0.73 96.4892 2.59166 93.1754 5.90542C89.8617 9.21919 88 13.7136 88 18.4V18.4C88.0027 23.0846 89.8655 27.5765 93.179 30.8881C96.4924 34.1997 100.985 36.06 105.67 36.06V36.06ZM17.67 81.06H94.57C99.2546 81.06 103.748 79.1997 107.061 75.8881C110.375 72.5765 112.237 68.0846 112.24 63.4V63.4C112.24 58.7136 110.378 54.2192 107.065 50.9054C103.751 47.5917 99.2564 45.73 94.57 45.73H17.67C12.9836 45.73 8.48919 47.5917 5.17542 50.9054C1.86166 54.2192 0 58.7136 0 63.4H0C0.00265118 68.0846 1.86548 72.5765 5.17896 75.8881C8.49244 79.1997 12.9854 81.06 17.67 81.06V81.06ZM10.41 35.42H18.21V6.92H28.31V0H0.31V6.9H10.41V35.42ZM38.51 35.42H46.31V8.25H46.41L55.41 35.4H61.41L70.71 8.25H70.81V35.4H78.61V0H66.76L58.56 23.1H58.46L50.31 0H38.51V35.42ZM152.43 55.67C151.387 53.4947 149.837 51.6017 147.91 50.15C145.911 48.6882 143.64 47.641 141.23 47.07C138.591 46.4106 135.881 46.0748 133.16 46.07H121.46V81.47H134.21C136.771 81.4824 139.319 81.0943 141.76 80.32C144.065 79.6185 146.219 78.4925 148.11 77C149.95 75.5068 151.441 73.6297 152.48 71.5C153.603 69.1337 154.161 66.5388 154.11 63.92C154.192 61.0774 153.617 58.2543 152.43 55.67V55.67ZM145 68.6C144.415 69.9344 143.508 71.1027 142.36 72C141.167 72.8769 139.805 73.4966 138.36 73.82C136.72 74.1977 135.042 74.3823 133.36 74.37H129.31V53.37H133.91C135.488 53.3622 137.06 53.5742 138.58 54C139.978 54.377 141.294 55.0111 142.46 55.87C143.529 56.7113 144.397 57.7806 145 59C145.687 60.4061 146.03 61.9554 146 63.52C146.044 65.2662 145.702 67.0007 145 68.6V68.6ZM189.63 68.47C189.277 67.5032 188.74 66.6136 188.05 65.85C187.363 65.0907 186.543 64.4636 185.63 64C184.634 63.4974 183.564 63.1597 182.46 63V62.9C184.175 62.4075 185.711 61.4279 186.88 60.08C188.033 58.6749 188.63 56.896 188.56 55.08C188.635 53.4514 188.235 51.836 187.41 50.43C186.657 49.2837 185.624 48.3477 184.41 47.71C183.104 47.0353 181.689 46.5953 180.23 46.41C178.7 46.1914 177.156 46.0811 175.61 46.08H162.41V81.48H176.91C178.497 81.4809 180.079 81.3133 181.63 80.98C183.14 80.6776 184.588 80.1196 185.91 79.33C187.161 78.5833 188.223 77.5563 189.01 76.33C189.853 74.9185 190.27 73.2931 190.21 71.65C190.212 70.5662 190.025 69.4903 189.66 68.47H189.63ZM170.21 52.72H175.51C176.131 52.7224 176.75 52.7827 177.36 52.9C177.951 53.0064 178.524 53.1984 179.06 53.47C179.554 53.7395 179.973 54.1279 180.28 54.6C180.618 55.1453 180.785 55.7791 180.76 56.42C180.775 57.0471 180.626 57.6672 180.33 58.22C180.06 58.7055 179.676 59.1175 179.21 59.42C178.725 59.7271 178.191 59.9471 177.63 60.07C177.05 60.2066 176.456 60.2738 175.86 60.27H170.21V52.72ZM181.93 72.72C181.629 73.2417 181.212 73.6867 180.71 74.02C180.202 74.3619 179.631 74.5999 179.03 74.72C178.433 74.8546 177.822 74.9217 177.21 74.92H170.21V66.92H176.11C176.779 66.9263 177.447 66.9765 178.11 67.07C178.814 67.1667 179.502 67.3514 180.16 67.62C180.773 67.8767 181.313 68.2823 181.73 68.8C182.165 69.3736 182.388 70.0805 182.36 70.8C182.392 71.467 182.244 72.1304 181.93 72.72V72.72Z" fill="url(#paint0_linear)"/>
<defs>
<linearGradient id="paint0_linear" x1="0" y1="40.76" x2="190.24" y2="40.76" gradientUnits="userSpaceOnUse">
<stop stop-color="#FB5A00"/>
<stop offset="0.56" stop-color="#F2A000"/>
<stop offset="1" stop-color="#F0D805"/>
</linearGradient>
</defs>
</svg>

<svg xmlns="http://www.w3.org/2000/svg" xmlns:xlink="http://www.w3.org/1999/xlink" viewBox="0 0 190.24 81.52"><defs><style>.cls-1{fill:url(#linear-gradient);}</style><linearGradient id="linear-gradient" y1="40.76" x2="190.24" y2="40.76" gradientUnits="userSpaceOnUse"><stop offset="0" stop-color="#90cea1"/><stop offset="0.56" stop-color="#3cbec9"/><stop offset="1" stop-color="#00b3e5"/></linearGradient></defs><title>Asset 2</title><g id="Layer_2" data-name="Layer 2"><g id="Layer_1-2" data-name="Layer 1"><path class="cls-1" d="M105.67,36.06h66.9A17.67,17.67,0,0,0,190.24,18.4h0A17.67,17.67,0,0,0,172.57.73h-66.9A17.67,17.67,0,0,0,88,18.4h0A17.67,17.67,0,0,0,105.67,36.06Zm-88,45h76.9A17.67,17.67,0,0,0,112.24,63.4h0A17.67,17.67,0,0,0,94.57,45.73H17.67A17.67,17.67,0,0,0,0,63.4H0A17.67,17.67,0,0,0,17.67,81.06ZM10.41,35.42h7.8V6.92h10.1V0H.31v6.9h10.1Zm28.1,0h7.8V8.25h.1l9,27.15h6l9.3-27.15h.1V35.4h7.8V0H66.76l-8.2,23.1h-.1L50.31,0H38.51ZM152.43,55.67a15.07,15.07,0,0,0-4.52-5.52,18.57,18.57,0,0,0-6.68-3.08,33.54,33.54,0,0,0-8.07-1h-11.7v35.4h12.75a24.58,24.58,0,0,0,7.55-1.15A19.34,19.34,0,0,0,148.11,77a16.27,16.27,0,0,0,4.37-5.5,16.91,16.91,0,0,0,1.63-7.58A18.5,18.5,0,0,0,152.43,55.67ZM145,68.6A8.8,8.8,0,0,1,142.36,72a10.7,10.7,0,0,1-4,1.82,21.57,21.57,0,0,1-5,.55h-4.05v-21h4.6a17,17,0,0,1,4.67.63,11.66,11.66,0,0,1,3.88,1.87A9.14,9.14,0,0,1,145,59a9.87,9.87,0,0,1,1,4.52A11.89,11.89,0,0,1,145,68.6Zm44.63-.13a8,8,0,0,0-1.58-2.62A8.38,8.38,0,0,0,185.63,64a10.31,10.31,0,0,0-3.17-1v-.1a9.22,9.22,0,0,0,4.42-2.82,7.43,7.43,0,0,0,1.68-5,8.42,8.42,0,0,0-1.15-4.65,8.09,8.09,0,0,0-3-2.72,12.56,12.56,0,0,0-4.18-1.3,32.84,32.84,0,0,0-4.62-.33h-13.2v35.4h14.5a22.41,22.41,0,0,0,4.72-.5,13.53,13.53,0,0,0,4.28-1.65,9.42,9.42,0,0,0,3.1-3,8.52,8.52,0,0,0,1.2-4.68A9.39,9.39,0,0,0,189.66,68.47ZM170.21,52.72h5.3a10,10,0,0,1,1.85.18,6.18,6.18,0,0,1,1.7.57,3.39,3.39,0,0,1,1.22,1.13,3.22,3.22,0,0,1,.48,1.82,3.63,3.63,0,0,1-.43,1.8,3.4,3.4,0,0,1-1.12,1.2,4.92,4.92,0,0,1-1.58.65,7.51,7.51,0,0,1-1.77.2h-5.65Zm11.72,20a3.9,3.9,0,0,1-1.22,1.3,4.64,4.64,0,0,1-1.68.7,8.18,8.18,0,0,1-1.82.2h-7v-8h5.9a15.35,15.35,0,0,1,2,.15,8.47,8.47,0,0,1,2.05.55,4,4,0,0,1,1.57,1.18,3.11,3.11,0,0,1,.63,2A3.71,3.71,0,0,1,181.93,72.72Z"/></g></g></svg>
